X:77
T: ICH WILL MICH UMSCHAUEN
N: E0685A
O: Europa, Mitteleuropa, Deutschland, Hessen, Homburg
R: Liebes - Lied, Leid, Klage, Trennung
M: 3/4
L: 1/8
K: G
GB | d2d2ec | cBB2
cA | d2BGA2 | G4
GB | d2d2ec | cBB2
cA | d2BGA2 | G4
GB | d2BAGB | A2A2
GB | d2BAGB | A4
GB | d2d2ec | cBB2
cA | d2BGA2 | G4

@@@ Tune index: 4390
